symbols/web/private_connectivity/materialsymbolssharp/private_connectivity_wght700gradN25_48px.svg

<svg xmlns="http://www.w3.org/2000/svg" height="48" width="48"><path d="M24 38.75q-5.7 0-9.775-3.65T9.35 25.95H1.8V22h7.55q.8-5.45 4.875-9.125T24 9.2q5.7 0 9.775 3.675T38.65 22h7.6v3.95h-7.6q-.8 5.5-4.875 9.15Q29.7 38.75 24 38.75Zm.05-4q4.5 0 7.625-3.15t3.125-7.65q0-4.5-3.15-7.625T24 13.2q-4.5 0-7.625 3.15T13.25 24q0 4.5 3.15 7.625t7.65 3.125Zm-5.6-4.1H29.6v-9.4h-2v-1.7q0-1.5-1.05-2.6t-2.6-1.1q-1.45 0-2.475 1.125Q20.45 18.1 20.45 19.65v1.6h-2Zm5.55-2.9q-.75 0-1.25-.5t-.5-1.25q0-.8.5-1.325.5-.525 1.25-.525.8 0 1.325.55.525.55.525 1.3t-.55 1.25q-.55.5-1.3.5Zm-1.9-6.5v-1.6q0-.9.55-1.55t1.35-.65q.8 0 1.375.65t.575 1.55v1.6ZM24 26Z"/></svg>

<svg xmlns="http://www.w3.org/2000/svg" height="48" width="48"><path d="M24 38.75Q18.3 38.75 14.225 35.1Q10.15 31.45 9.35 25.95H1.8V22H9.35Q10.15 16.55 14.225 12.875Q18.3 9.2 24 9.2Q29.7 9.2 33.775 12.875Q37.85 16.55 38.65 22H46.25V25.95H38.65Q37.85 31.45 33.775 35.1Q29.7 38.75 24 38.75ZM24.05 34.75Q28.55 34.75 31.675 31.6Q34.8 28.45 34.8 23.95Q34.8 19.45 31.65 16.325Q28.5 13.2 24 13.2Q19.5 13.2 16.375 16.35Q13.25 19.5 13.25 24Q13.25 28.5 16.4 31.625Q19.55 34.75 24.05 34.75ZM18.45 30.65H29.6V21.25H27.6V19.55Q27.6 18.05 26.55 16.95Q25.5 15.85 23.95 15.85Q22.5 15.85 21.475 16.975Q20.45 18.1 20.45 19.65V21.25H18.45ZM24 27.75Q23.25 27.75 22.75 27.25Q22.25 26.75 22.25 26Q22.25 25.2 22.75 24.675Q23.25 24.15 24 24.15Q24.8 24.15 25.325 24.7Q25.85 25.25 25.85 26Q25.85 26.75 25.3 27.25Q24.75 27.75 24 27.75ZM22.1 21.25V19.65Q22.1 18.75 22.65 18.1Q23.2 17.45 24 17.45Q24.8 17.45 25.375 18.1Q25.95 18.75 25.95 19.65V21.25ZM24 26Q24 26 24 26Q24 26 24 26Q24 26 24 26Q24 26 24 26Q24 26 24 26Q24 26 24 26Q24 26 24 26Q24 26 24 26Z"/></svg>
